X: 207
T: Bak Ne Tâhir Bûselik Yerdir O
C: Ahmet Avni Konuk
O: Turkey
F: http://compmusic.upf.edu/node/140
N: tahirbuselik--kupe--agiraksak--bak--ahmet_avni_konuk
N: makam= tahirbuselik
N: form= kupe
N: usul= agiraksak = 9/4
M: 9/4
L: 1/16
K: C _1/4B ^f  
Q: 1/4=60
%%MIDI tuningsystem comma53
g4 a4 z2g4a2 a8 c'3_2/4b a2b2 a4  | \
w:  Ah  *  bak  ne  Tâ hir   | 
z4 a2c'2 _2/4b4 a4 a2g2 g2^3/4f2 f3e f2g2 f3e  | 
w:  Bû *  *  se lik  *  *  *  yer  | 
d8 z2d4e2 e2d2 c2=B2 g8 g2^3/4f2  | \
w:  *  dir  o  ruh *  *  *  sâr_  | 
^3/4f4 e2f2 a2g2 ^2/4f2e2 e2=f2 e2d2 d8 z4  | 
w:  ı  *  *  *  *  ni *  gâr    | 
g8 z2e4^3/4f2 g4 g2a2 a2g2 =f2e2 d4  | \
w:  *  Ger  leb_ i  *  *  â  | 
z4 d2a2 g4 =f2e2 e2d2 d2e2 d2c2 c2_2/4B2 c3=B  | 
w:  şık  *  *  te *  mas  *  *  *  et  | 
A8 z2c2 =B2c2 d4 e4 e2=f2 e2d2 c3B  | \
w:  *  se  *  o  ruh *  sâ  | 
A4 A2=B2 c2d2 c2B2 B2A2 A2^G2 A8 z4  | 
w:  re  *  *  *  *  ka *  yar    | 
|


